X:090
T:Go To the Devil and Shake Yourself               
B:Ms Music Book, Duchess of Atholl
Z:Nigel Gatherer
M:6/8
L:1/8
K:A
a|e2 c cBc|e2 c c2 a|e2 c cBc|A2 F F2 a|e2 c cBc|
Ace aga|fed cdB|A2 F F2::G|ABA cBc|A2 F F2 A|GAB BcA|
G2 E E2 G|ABA cBc|Ace aga|fed cdB|A2 F F2:|
<end>
<start>
